X:1
T:Loyal and True
T:Loyal and True
T:Charles Hutchinson Gabriel
T:Frank Walcott Hutt, 1892
T:Public Domain Courtesy of the Cyber Hymnal™
T:Public Domain Courtesy of the Cyber Hymnal™
C:Charles Hutchinson Gabriel
Z:Public Domain
Z:Courtesy of the Cyber Hymnal™
%%score 1 2 ( 3 4 )
L:1/8
Q:1/4=93
M:4/4
K:G
V:1 treble 
V:2 treble 
V:3 bass 
V:4 bass 
V:1
 D2 E>F GFGA | B2 (B>c) B4 | A2 A>^G ABAF | G2 E2 D3 D | EEEE GGFG | AAA^G ABAD | G3 B d3 B | %7
w: 1.~While there’s a lit- tle seed for|me to * sow,|While there’s a lit- tle field for|me to mow, Let|me a- wake and sow- ing be, Let|me a- broad and mow- ing be, For,|oh, these days that|
w: 2.~While there is good that ev- en|I may * preach,|While there’s a soul that ev- en|I may teach, I|can an ear- nest preach- er be, A|true and loy- al teach- er be, And|ev- ery- where sal-|
w: 3.~While there’s a lit- tle song that|I can * sing,|While there’s a lit- tle joy that|I can bring, O|let me ev- er sing- ing be, And|joy and com- fort bring- ing be, And|so ful- fill- ing|
 AGFG c4 | B2 d>e dBGA | B3 A G4 | [Bd]2 [Bd]>[Ac] [GB][Ac] [Bd]2 | %11
w: go so quick- ly by,|Tell of the reap- ing of e-|ter- ni- ty.|Let me a sow- er be,|
w: va- tion’s joys de- clare,|As I have free- ly gained to|free- ly share.|Let me a preach- er be,|
w: well my Lord’s be- hest,|In Him shall ev- ery wor- thy|deed be blest.|Then let me ev- er sing,|
 [GB]2 [GB]>[DA] [DG][DA] [GB]2 | [FA]2 [FA]>[^E^G] [FA][=GB][Ac][Fd] | %13
w: let me a mow- er be—|And to our great com- mand- er|
w: let me a teach- er be—|And to our great com- mand- er|
w: joy to some heart to bring,|And to our great com- mand- er|
 [Ge][Gd][G^c][Gd] [GB]3 [=FA] | [EG]2 [EG]>[DF] [CE][EG] [Ec]2 | %15
w: loy- al be and true; Oh,|let me a sow- er be,|
w: loy- al be and true; O|let me a preach- er be,|
w: loy- al be and true; Oh|then let me ev- er sing,|
 [CE]2 [B,D]>[^A,^C] [B,D][B,G] [DB]2 | [FA]2 [FA]>[^E^G] [FA][Ac][=GB][=EA] | %17
w: let me a mow- er be,|Rea- dy to do what- ev- er|
w: let me a teach- er be,|Rea- dy to do what- ev- er|
w: joy to some heart to bring,|Rea- dy to do what- ev- er|
 [DG][DF][DE][DF] [DG]4 |] %18
w: I may find to do.|
w: I may find to do.|
w: I may find to do.|
V:2
 z2 [B,DG]2 z2 [B,DG]2 | z2 ([B,DG]>[CEG]) ([B,DG]2 [B,DG]2) | z2 [A,CDF]2 z2 [A,CDF]2 | %3
 z2 [CEG]2 ([B,DG]2 [B,DG]2) | z G,[CE]G, z G,[^CEG]G, | z A,[DF]A, z A,[DF]A, | %6
 z ([B,DG][B,DG])[B,DG] z ([B,DG][B,DG])[B,DG] | z [D=FG][DFG][DFG] z ([CEG][CEG][CEG]) | %8
 z [B,DG][B,DG][B,DG] z [B,DG][DG][EG] | z ([B,DG][CDF])[CDF] [B,DG]4 | x8 | x8 | x8 | x8 | x8 | %15
 x8 | x8 | x8 |] %18
V:3
 [G,,G,]4 [G,,G,]4 | [G,,G,]6 z2 | D,4 D,4 | [G,,G,]6 z2 | C,4 A,,4 | D,4 D,4 | [G,,G,]4 [G,,G,]4 | %7
 B,,4 C,4 | G,4 G,2 B,,C, | D,4 [G,,G,]4 | [G,D]2 [G,D]>[G,D] [G,D][G,D] [G,D]2 | %11
 [G,D]2 [G,D]>[G,C] [G,B,][G,C] [G,D]2 | [D,D]2 [D,D]>[D,D] [D,D][D,D][D,D][D,D] | %13
 [G,C][G,B,][G,^A,][G,B,] [G,D]3 [G,B,] | [C,C]2 [C,C]>[C,C] [C,G,][C,C] [C,G,]2 | %15
 G,2 G,>G, G,G, G,2 | [D,D]2 [D,D]>[D,D] [D,D][F,D][G,D][C,C] | [D,B,][D,A,][D,C][D,C] [G,,B,]4 |] %18
V:4
 x8 | x8 | x8 | x8 | x8 | x8 | x8 | x8 | x8 | x8 | x8 | x8 | x8 | x8 | x8 | G,2 G,>G, G,G, G,2 | %16
 x8 | x8 |] %18

